src/Icon/svgs/CheckCircleOutline.svg

<svg width="24" height="24" viewBox="0 0 24 24" fill="none" xmlns="http://www.w3.org/2000/svg">
<path fill-rule="evenodd" clip-rule="evenodd" d="M10.3335 16.7948L17.8335 9.29484L16.6585 8.11084L10.3335 14.4368L7.3415 11.4528L6.1665 12.6278L10.3335 16.7948Z" fill="#1B1C1D"/>
<path fill-rule="evenodd" clip-rule="evenodd" d="M21 12C21 7.03257 16.9674 3 12 3C7.03257 3 3 7.03257 3 12C3 16.9674 7.03257 21 12 21C16.9674 21 21 16.9674 21 12ZM12 1C18.072 1 23 5.928 23 12C23 18.072 18.072 23 12 23C5.928 23 1 18.072 1 12C1 5.928 5.928 1 12 1Z" fill="#1B1C1D"/>
</svg>

<svg xmlns="http://www.w3.org/2000/svg" width="24" height="24" fill="#1B1C1D"  fill-rule="evenodd"><path d="M10.334 16.795l7.5-7.5-1.175-1.184-6.325 6.326-2.992-2.984-1.175 1.175 4.167 4.167zM21 12c0-4.967-4.033-9-9-9s-9 4.033-9 9 4.033 9 9 9 9-4.033 9-9zM12 1c6.072 0 11 4.928 11 11s-4.928 11-11 11S1 18.072 1 12 5.928 1 12 1z"/></svg>
